X: 22
T:Waltz. WI.022
M:3/4
L:1/4
Q:90
S:Wm Irwin, 1838 MS, AGG's Transcription
R:Waltz
O:England
A:Lake District
Z:vmp.Chris Partington.2005
K:G
d|dba| gBd|cAf |gbB/c/|
dba| gBd|cAf |g2:|!
|:B|cAf|gbB|cAf|gbB/c/|
dba| gBd|cAf |g2:|]
